assets/images/wd-gallery.svg

<?xml version="1.0" encoding="UTF-8" standalone="no"?>
<svg width="80px" height="80px" viewBox="0 0 80 80" version="1.1" xmlns="http://www.w3.org/2000/svg" xmlns:xlink="http://www.w3.org/1999/xlink" xmlns:sketch="http://www.bohemiancoding.com/sketch/ns">
    <!-- Generator: Sketch 3.4.2 (15855) - http://www.bohemiancoding.com/sketch -->
    <title>wd-gallery</title>
    <desc>Created with Sketch.</desc>
    <defs>
        <linearGradient x1="100%" y1="100%" x2="13.8476563%" y2="18.828125%" id="linearGradient-1">
            <stop stop-color="#FC5854" offset="0%"></stop>
            <stop stop-color="#B64959" offset="100%"></stop>
        </linearGradient>
    </defs>
    <g id="symbols" stroke="none" stroke-width="1" fill="none" fill-rule="evenodd" sketch:type="MSPage">
        <g id="wd-gallery" sketch:type="MSLayerGroup">
            <circle id="Oval-1" fill="url(#linearGradient-1)" sketch:type="MSShapeGroup" cx="40" cy="40" r="40"></circle>
            <path d="M43.2416967,33.8894754 C39.5047271,32.5293297 35.373018,34.4571008 34.0133648,38.1927173 C32.6532191,41.9296869 34.579637,46.0609035 38.3166066,47.4210492 C42.0526741,48.7808665 46.1847928,46.8547769 47.5449385,43.1178073 C48.9045917,39.3821909 46.9777642,35.2492928 43.2416967,33.8894754 L43.2416967,33.8894754 L43.2416967,33.8894754 Z M63.74634,33.6904753 L58.3337105,31.7204393 C57.589474,31.4495593 56.9976399,30.5803185 57.0197313,29.788438 L57.148822,25.0803363 C57.1698471,24.2885785 56.5789151,23.419666 55.8346785,23.1487861 L40.498895,17.5670173 C39.7546584,17.2961374 38.74255,17.5815908 38.2504619,18.2024066 L35.3230418,21.8919996 C34.8302158,22.512036 33.8190095,22.7978178 33.0747729,22.5269378 L27.6621434,20.5569018 C25.1813549,19.6539686 22.4128553,20.9449412 21.5099221,23.4257297 L14.122287,43.7230903 C13.2193539,46.2038788 14.5103264,48.9723784 16.9911149,49.8753116 L53.0753116,63.0088851 C55.5561001,63.9118182 58.3245997,62.6208457 59.2275328,60.1400572 L66.6151679,39.8426966 C67.5181011,37.3619081 66.2271286,34.5934085 63.74634,33.6904753 L63.74634,33.6904753 L63.74634,33.6904753 Z M36.6749099,51.9315737 C30.4472286,49.6648831 27.2361496,42.7787019 29.5028402,36.5510206 C31.7693667,30.3237903 38.6557121,27.1122602 44.8833934,29.3789508 C51.1101726,31.6453131 54.3219896,38.5322738 52.0554631,44.759504 C49.7887725,50.9871853 42.9016891,54.197936 36.6749099,51.9315737 L36.6749099,51.9315737 L36.6749099,51.9315737 Z M59.3779213,40.7806159 C58.5064879,40.4634401 58.0563274,39.4996739 58.3738315,38.6273384 C58.6910073,37.7559051 59.6556756,37.3060729 60.5271089,37.6232487 C61.3994444,37.9407528 61.8483745,38.9050928 61.5311987,39.7765261 C61.2136946,40.6488616 60.2498057,41.0979558 59.3779213,40.7806159 L59.3779213,40.7806159 L59.3779213,40.7806159 Z" id="Shape" fill="#FFFFFF" sketch:type="MSShapeGroup"></path>
        </g>
    </g>
</svg>

<svg width="80" height="80" viewBox="0 0 80 80" xmlns="http://www.w3.org/2000/svg"><title>wd-gallery</title><defs><linearGradient x1="100%" y1="100%" x2="13.848%" y2="18.828%" id="wd-gallery-a"><stop stop-color="#FC5854" offset="0%"/><stop stop-color="#B64959" offset="100%"/></linearGradient></defs><g fill="none" fill-rule="evenodd"><circle fill="url(#wd-gallery-a)" cx="40" cy="40" r="40"/><path d="M43.242 33.89a7.2 7.2 0 1 0-4.925 13.532 7.2 7.2 0 0 0 4.925-13.533zm20.504-.2l-5.412-1.97c-.745-.27-1.336-1.14-1.314-1.932l.13-4.708c.02-.79-.57-1.66-1.315-1.93L40.5 17.566c-.745-.27-1.757.015-2.25.635l-2.927 3.69c-.493.62-1.504.906-2.248.635l-5.413-1.97a4.814 4.814 0 0 0-6.152 2.87l-7.388 20.296a4.814 4.814 0 0 0 2.87 6.152L53.074 63.01a4.814 4.814 0 0 0 6.153-2.87l7.387-20.297a4.814 4.814 0 0 0-2.87-6.153zm-27.07 18.242c-6.23-2.267-9.44-9.153-7.173-15.38 2.266-6.228 9.153-9.44 15.38-7.173 6.227 2.265 9.44 9.152 7.172 15.38-2.266 6.227-9.153 9.438-15.38 7.172zm22.702-11.15a1.68 1.68 0 1 1 1.15-3.16 1.68 1.68 0 0 1-1.15 3.16z" fill="#FFF"/></g></svg>
